src/icons/debug-stackframe.svg

<svg width="16" height="16" viewBox="0 0 16 16" fill="none" xmlns="http://www.w3.org/2000/svg">
<path d="M14.5 7.15002L10.24 2.41003L9.31006 2H4.25L3 3.25V12.73L4.25 13.98H9.31006L10.24 13.5601L14.5 8.81995V7.15002ZM9.31006 12.73H4.25V3.25H9.31006L13.5699 7.97998L9.31006 12.73Z" fill="#FFCC00"/>
</svg>

<svg width="16" height="16" xmlns="http://www.w3.org/2000/svg"><path d="M14.5 7.15l-4.26-4.74L9.31 2H4.25L3 3.25v9.48l1.25 1.25h5.06l.93-.42 4.26-4.74V7.15zm-5.19 5.58H4.25V3.25h5.06l4.26 4.73-4.26 4.75z"/></svg>
